images/50435811.svg

<?xml version="1.0" encoding="UTF-8"?>
<svg xmlns="http://www.w3.org/2000/svg" xmlns:xlink="http://www.w3.org/1999/xlink" width="300pt" height="300pt" viewBox="0 0 300 300" version="1.1">
<defs>
<g>
<symbol overflow="visible" id="glyph0-0">
<path style="stroke:none;" d="M 0.453125 1.59375 L 0.453125 -6.34375 L 4.953125 -6.34375 L 4.953125 1.59375 Z M 0.953125 1.09375 L 4.453125 1.09375 L 4.453125 -5.84375 L 0.953125 -5.84375 Z M 0.953125 1.09375 "/>
</symbol>
<symbol overflow="visible" id="glyph0-1">
<path style="stroke:none;" d="M 3.546875 -5.953125 C 2.898438 -5.953125 2.382812 -5.710938 2 -5.234375 C 1.625 -4.753906 1.4375 -4.101562 1.4375 -3.28125 C 1.4375 -2.445312 1.625 -1.789062 2 -1.3125 C 2.382812 -0.832031 2.898438 -0.59375 3.546875 -0.59375 C 4.191406 -0.59375 4.703125 -0.832031 5.078125 -1.3125 C 5.453125 -1.789062 5.640625 -2.445312 5.640625 -3.28125 C 5.640625 -4.101562 5.453125 -4.753906 5.078125 -5.234375 C 4.703125 -5.710938 4.191406 -5.953125 3.546875 -5.953125 Z M 3.546875 -6.6875 C 4.460938 -6.6875 5.195312 -6.375 5.75 -5.75 C 6.300781 -5.132812 6.578125 -4.3125 6.578125 -3.28125 C 6.578125 -2.238281 6.300781 -1.410156 5.75 -0.796875 C 5.195312 -0.179688 4.460938 0.125 3.546875 0.125 C 2.617188 0.125 1.878906 -0.179688 1.328125 -0.796875 C 0.773438 -1.410156 0.5 -2.238281 0.5 -3.28125 C 0.5 -4.3125 0.773438 -5.132812 1.328125 -5.75 C 1.878906 -6.375 2.617188 -6.6875 3.546875 -6.6875 Z M 3.546875 -6.6875 "/>
</symbol>
<symbol overflow="visible" id="glyph0-2">
<path style="stroke:none;" d="M 0.890625 -6.5625 L 2.078125 -6.5625 L 4.984375 -1.078125 L 4.984375 -6.5625 L 5.84375 -6.5625 L 5.84375 0 L 4.65625 0 L 1.75 -5.484375 L 1.75 0 L 0.890625 0 Z M 0.890625 -6.5625 "/>
</symbol>
<symbol overflow="visible" id="glyph0-3">
<path style="stroke:none;" d="M 0.890625 -6.5625 L 1.765625 -6.5625 L 1.765625 -3.875 L 5 -3.875 L 5 -6.5625 L 5.890625 -6.5625 L 5.890625 0 L 5 0 L 5 -3.125 L 1.765625 -3.125 L 1.765625 0 L 0.890625 0 Z M 0.890625 -6.5625 "/>
</symbol>
<symbol overflow="visible" id="glyph1-0">
<path style="stroke:none;" d="M 0.40625 1.421875 L 0.40625 -5.640625 L 4.40625 -5.640625 L 4.40625 1.421875 Z M 0.84375 0.96875 L 3.953125 0.96875 L 3.953125 -5.1875 L 0.84375 -5.1875 Z M 0.84375 0.96875 "/>
</symbol>
<symbol overflow="visible" id="glyph1-1">
<path style="stroke:none;" d="M 3.6875 -5.015625 L 3.6875 -2.84375 L 5.859375 -2.84375 L 5.859375 -2.171875 L 3.6875 -2.171875 L 3.6875 0 L 3.03125 0 L 3.03125 -2.171875 L 0.84375 -2.171875 L 0.84375 -2.84375 L 3.03125 -2.84375 L 3.03125 -5.015625 Z M 3.6875 -5.015625 "/>
</symbol>
</g>
</defs>
<g id="surface26933">
<rect x="0" y="0" width="300" height="300" style="fill:rgb(100%,100%,100%);fill-opacity:1;stroke:none;"/>
<path style="fill:none;stroke-width:1.2;stroke-linecap:butt;stroke-linejoin:miter;stroke:rgb(100%,0%,0%);stroke-opacity:1;stroke-miterlimit:10;" d="M 251.480469 81.933594 L 258.117188 90.136719 "/>
<path style="fill:none;stroke-width:1.2;stroke-linecap:butt;stroke-linejoin:miter;stroke:rgb(0%,0%,0%);stroke-opacity:1;stroke-miterlimit:10;" d="M 258.117188 90.136719 L 264.75 98.335938 "/>
<path style="fill:none;stroke-width:1.2;stroke-linecap:butt;stroke-linejoin:miter;stroke:rgb(0%,0%,0%);stroke-opacity:1;stroke-miterlimit:10;" d="M 230.640625 85.226562 L 241.0625 83.582031 "/>
<path style="fill:none;stroke-width:1.2;stroke-linecap:butt;stroke-linejoin:miter;stroke:rgb(100%,0%,0%);stroke-opacity:1;stroke-miterlimit:10;" d="M 241.0625 83.582031 L 251.480469 81.933594 "/>
<path style=" stroke:none;fill-rule:nonzero;fill:rgb(100%,100%,100%);fill-opacity:1;" d="M 247.480469 76.433594 L 255.480469 76.433594 L 255.480469 87.433594 L 247.480469 87.433594 Z M 247.480469 76.433594 "/>
<g style="fill:rgb(100%,0%,0%);fill-opacity:1;">
  <use xlink:href="#glyph0-1" x="247.480469" y="85.09668"/>
</g>
<path style="fill:none;stroke-width:1.2;stroke-linecap:butt;stroke-linejoin:miter;stroke:rgb(0%,0%,0%);stroke-opacity:1;stroke-miterlimit:10;" d="M 264.75 98.335938 L 257.179688 118.027344 "/>
<path style="fill:none;stroke-width:1.2;stroke-linecap:butt;stroke-linejoin:miter;stroke:rgb(0%,0%,0%);stroke-opacity:1;stroke-miterlimit:10;" d="M 257.179688 118.027344 L 246.761719 119.675781 "/>
<path style="fill:none;stroke-width:1.2;stroke-linecap:butt;stroke-linejoin:miter;stroke:rgb(0%,0%,100%);stroke-opacity:1;stroke-miterlimit:10;" d="M 246.761719 119.675781 L 236.34375 121.320312 "/>
<path style="fill:none;stroke-width:1.2;stroke-linecap:butt;stroke-linejoin:miter;stroke:rgb(0%,0%,100%);stroke-opacity:1;stroke-miterlimit:10;" d="M 236.34375 121.320312 L 229.707031 113.117188 "/>
<path style="fill:none;stroke-width:1.2;stroke-linecap:butt;stroke-linejoin:miter;stroke:rgb(0%,0%,0%);stroke-opacity:1;stroke-miterlimit:10;" d="M 229.707031 113.117188 L 223.074219 104.917969 "/>
<path style="fill:none;stroke-width:1.2;stroke-linecap:butt;stroke-linejoin:miter;stroke:rgb(0%,0%,100%);stroke-opacity:1;stroke-miterlimit:10;" d="M 236.34375 121.320312 L 232.558594 131.164062 "/>
<path style="fill:none;stroke-width:1.2;stroke-linecap:butt;stroke-linejoin:miter;stroke:rgb(0%,0%,0%);stroke-opacity:1;stroke-miterlimit:10;" d="M 232.558594 131.164062 L 228.773438 141.011719 "/>
<path style=" stroke:none;fill-rule:nonzero;fill:rgb(100%,100%,100%);fill-opacity:1;" d="M 226.34375 113.820312 L 247.34375 113.820312 L 247.34375 128.820312 L 226.34375 128.820312 Z M 226.34375 113.820312 "/>
<g style="fill:rgb(0%,0%,100%);fill-opacity:1;">
  <use xlink:href="#glyph0-2" x="226.34375" y="125.921875"/>
  <use xlink:href="#glyph0-3" x="233.321289" y="125.921875"/>
</g>
<g style="fill:rgb(0%,0%,100%);fill-opacity:1;">
  <use xlink:href="#glyph1-1" x="240.335938" y="121.039062"/>
</g>
<path style="fill:none;stroke-width:1.2;stroke-linecap:butt;stroke-linejoin:miter;stroke:rgb(0%,0%,0%);stroke-opacity:1;stroke-miterlimit:10;" d="M 223.074219 104.917969 L 230.640625 85.226562 "/>
<path style="fill:none;stroke-width:1.2;stroke-linecap:butt;stroke-linejoin:miter;stroke:rgb(0%,0%,0%);stroke-opacity:1;stroke-miterlimit:10;" d="M 228.773438 141.011719 L 207.933594 144.304688 "/>
<path style="fill:none;stroke-width:1.2;stroke-linecap:butt;stroke-linejoin:miter;stroke:rgb(0%,0%,0%);stroke-opacity:1;stroke-miterlimit:10;" d="M 207.933594 144.304688 L 204.148438 154.148438 "/>
<path style="fill:none;stroke-width:1.2;stroke-linecap:butt;stroke-linejoin:miter;stroke:rgb(100%,0%,0%);stroke-opacity:1;stroke-miterlimit:10;" d="M 204.148438 154.148438 L 200.363281 163.996094 "/>
<path style="fill:none;stroke-width:1.2;stroke-linecap:butt;stroke-linejoin:miter;stroke:rgb(100%,0%,0%);stroke-opacity:1;stroke-miterlimit:10;" d="M 200.363281 163.996094 L 189.945312 165.640625 "/>
<path style="fill:none;stroke-width:1.2;stroke-linecap:butt;stroke-linejoin:miter;stroke:rgb(0%,0%,0%);stroke-opacity:1;stroke-miterlimit:10;" d="M 189.945312 165.640625 L 179.527344 167.285156 "/>
<path style=" stroke:none;fill-rule:nonzero;fill:rgb(100%,100%,100%);fill-opacity:1;" d="M 196.363281 158.496094 L 204.363281 158.496094 L 204.363281 169.496094 L 196.363281 169.496094 Z M 196.363281 158.496094 "/>
<g style="fill:rgb(100%,0%,0%);fill-opacity:1;">
  <use xlink:href="#glyph0-1" x="196.363281" y="167.15918"/>
</g>
<path style="fill:none;stroke-width:1.2;stroke-linecap:butt;stroke-linejoin:miter;stroke:rgb(0%,0%,0%);stroke-opacity:1;stroke-miterlimit:10;" d="M 179.527344 167.285156 L 171.957031 186.980469 "/>
<path style="fill:none;stroke-width:1.2;stroke-linecap:butt;stroke-linejoin:miter;stroke:rgb(0%,0%,0%);stroke-opacity:1;stroke-miterlimit:10;" d="M 166.257812 150.886719 L 179.527344 167.285156 "/>
<path style="fill:none;stroke-width:1.2;stroke-linecap:butt;stroke-linejoin:miter;stroke:rgb(0%,0%,0%);stroke-opacity:1;stroke-miterlimit:10;" d="M 163.722656 155.648438 L 174.339844 168.769531 "/>
<path style="fill:none;stroke-width:1.2;stroke-linecap:butt;stroke-linejoin:miter;stroke:rgb(0%,0%,0%);stroke-opacity:1;stroke-miterlimit:10;" d="M 171.957031 186.980469 L 151.117188 190.269531 "/>
<path style="fill:none;stroke-width:1.2;stroke-linecap:butt;stroke-linejoin:miter;stroke:rgb(0%,0%,0%);stroke-opacity:1;stroke-miterlimit:10;" d="M 185.226562 203.378906 L 171.957031 186.980469 "/>
<path style="fill:none;stroke-width:1.2;stroke-linecap:butt;stroke-linejoin:miter;stroke:rgb(0%,0%,0%);stroke-opacity:1;stroke-miterlimit:10;" d="M 180.039062 204.863281 L 169.425781 191.742188 "/>
<path style="fill:none;stroke-width:1.2;stroke-linecap:butt;stroke-linejoin:miter;stroke:rgb(0%,0%,0%);stroke-opacity:1;stroke-miterlimit:10;" d="M 151.117188 190.269531 L 143.550781 209.960938 "/>
<path style="fill:none;stroke-width:1.2;stroke-linecap:butt;stroke-linejoin:miter;stroke:rgb(0%,0%,0%);stroke-opacity:1;stroke-miterlimit:10;" d="M 154.996094 194.019531 L 148.9375 209.773438 "/>
<path style="fill:none;stroke-width:1.2;stroke-linecap:butt;stroke-linejoin:miter;stroke:rgb(0%,0%,0%);stroke-opacity:1;stroke-miterlimit:10;" d="M 151.117188 190.269531 L 137.847656 173.867188 "/>
<path style="fill:none;stroke-width:1.2;stroke-linecap:butt;stroke-linejoin:miter;stroke:rgb(0%,0%,0%);stroke-opacity:1;stroke-miterlimit:10;" d="M 143.550781 209.960938 L 156.816406 226.363281 "/>
<path style="fill:none;stroke-width:1.2;stroke-linecap:butt;stroke-linejoin:miter;stroke:rgb(0%,0%,0%);stroke-opacity:1;stroke-miterlimit:10;" d="M 156.816406 226.363281 L 177.65625 223.074219 "/>
<path style="fill:none;stroke-width:1.2;stroke-linecap:butt;stroke-linejoin:miter;stroke:rgb(0%,0%,0%);stroke-opacity:1;stroke-miterlimit:10;" d="M 158.128906 221.132812 L 174.796875 218.5 "/>
<path style="fill:none;stroke-width:1.2;stroke-linecap:butt;stroke-linejoin:miter;stroke:rgb(0%,0%,0%);stroke-opacity:1;stroke-miterlimit:10;" d="M 177.65625 223.074219 L 185.226562 203.378906 "/>
<path style="fill:none;stroke-width:1.2;stroke-linecap:butt;stroke-linejoin:miter;stroke:rgb(0%,0%,0%);stroke-opacity:1;stroke-miterlimit:10;" d="M 137.847656 173.867188 L 127.429688 175.515625 "/>
<path style="fill:none;stroke-width:1.2;stroke-linecap:butt;stroke-linejoin:miter;stroke:rgb(0%,0%,100%);stroke-opacity:1;stroke-miterlimit:10;" d="M 127.429688 175.515625 L 117.011719 177.160156 "/>
<path style="fill:none;stroke-width:1.2;stroke-linecap:butt;stroke-linejoin:miter;stroke:rgb(0%,0%,0%);stroke-opacity:1;stroke-miterlimit:10;" d="M 137.847656 173.867188 L 145.417969 154.175781 "/>
<path style="fill:none;stroke-width:1.2;stroke-linecap:butt;stroke-linejoin:miter;stroke:rgb(0%,0%,0%);stroke-opacity:1;stroke-miterlimit:10;" d="M 143.238281 173.679688 L 149.292969 157.925781 "/>
<path style="fill:none;stroke-width:1.2;stroke-linecap:butt;stroke-linejoin:miter;stroke:rgb(0%,0%,100%);stroke-opacity:1;stroke-miterlimit:10;" d="M 117.011719 177.160156 L 110.375 168.957031 "/>
<path style="fill:none;stroke-width:1.2;stroke-linecap:butt;stroke-linejoin:miter;stroke:rgb(0%,0%,0%);stroke-opacity:1;stroke-miterlimit:10;" d="M 110.375 168.957031 L 103.742188 160.757812 "/>
<path style=" stroke:none;fill-rule:nonzero;fill:rgb(100%,100%,100%);fill-opacity:1;" d="M 110.011719 171.660156 L 124.011719 171.660156 L 124.011719 182.660156 L 110.011719 182.660156 Z M 110.011719 171.660156 "/>
<g style="fill:rgb(0%,0%,100%);fill-opacity:1;">
  <use xlink:href="#glyph0-2" x="110.011719" y="180.323242"/>
  <use xlink:href="#glyph0-3" x="116.989258" y="180.323242"/>
</g>
<path style="fill:none;stroke-width:1.2;stroke-linecap:butt;stroke-linejoin:miter;stroke:rgb(0%,0%,0%);stroke-opacity:1;stroke-miterlimit:10;" d="M 106.058594 161.648438 L 109.84375 151.800781 "/>
<path style="fill:none;stroke-width:1.2;stroke-linecap:butt;stroke-linejoin:miter;stroke:rgb(100%,0%,0%);stroke-opacity:1;stroke-miterlimit:10;" d="M 109.84375 151.800781 L 113.625 141.957031 "/>
<path style="fill:none;stroke-width:1.2;stroke-linecap:butt;stroke-linejoin:miter;stroke:rgb(0%,0%,0%);stroke-opacity:1;stroke-miterlimit:10;" d="M 101.421875 159.867188 L 105.207031 150.019531 "/>
<path style="fill:none;stroke-width:1.2;stroke-linecap:butt;stroke-linejoin:miter;stroke:rgb(100%,0%,0%);stroke-opacity:1;stroke-miterlimit:10;" d="M 105.207031 150.019531 L 108.992188 140.175781 "/>
<path style="fill:none;stroke-width:1.2;stroke-linecap:butt;stroke-linejoin:miter;stroke:rgb(0%,0%,0%);stroke-opacity:1;stroke-miterlimit:10;" d="M 103.742188 160.757812 L 82.902344 164.050781 "/>
<path style=" stroke:none;fill-rule:nonzero;fill:rgb(100%,100%,100%);fill-opacity:1;" d="M 107.308594 135.566406 L 115.308594 135.566406 L 115.308594 146.566406 L 107.308594 146.566406 Z M 107.308594 135.566406 "/>
<g style="fill:rgb(100%,0%,0%);fill-opacity:1;">
  <use xlink:href="#glyph0-1" x="107.308594" y="144.229492"/>
</g>
<path style="fill:none;stroke-width:1.2;stroke-linecap:butt;stroke-linejoin:miter;stroke:rgb(0%,0%,0%);stroke-opacity:1;stroke-miterlimit:10;" d="M 80.585938 163.160156 L 76.800781 173.003906 "/>
<path style="fill:none;stroke-width:1.2;stroke-linecap:butt;stroke-linejoin:miter;stroke:rgb(100%,0%,0%);stroke-opacity:1;stroke-miterlimit:10;" d="M 76.800781 173.003906 L 73.015625 182.851562 "/>
<path style="fill:none;stroke-width:1.2;stroke-linecap:butt;stroke-linejoin:miter;stroke:rgb(0%,0%,0%);stroke-opacity:1;stroke-miterlimit:10;" d="M 85.21875 164.941406 L 81.433594 174.785156 "/>
<path style="fill:none;stroke-width:1.2;stroke-linecap:butt;stroke-linejoin:miter;stroke:rgb(100%,0%,0%);stroke-opacity:1;stroke-miterlimit:10;" d="M 81.433594 174.785156 L 77.648438 184.632812 "/>
<path style="fill:none;stroke-width:1.2;stroke-linecap:butt;stroke-linejoin:miter;stroke:rgb(0%,0%,0%);stroke-opacity:1;stroke-miterlimit:10;" d="M 82.902344 164.050781 L 69.632812 147.648438 "/>
<path style=" stroke:none;fill-rule:nonzero;fill:rgb(100%,100%,100%);fill-opacity:1;" d="M 67.332031 178.242188 L 75.332031 178.242188 L 75.332031 189.242188 L 67.332031 189.242188 Z M 67.332031 178.242188 "/>
<g style="fill:rgb(100%,0%,0%);fill-opacity:1;">
  <use xlink:href="#glyph0-1" x="67.332031" y="186.905273"/>
</g>
<path style="fill:none;stroke-width:1.2;stroke-linecap:butt;stroke-linejoin:miter;stroke:rgb(0%,0%,0%);stroke-opacity:1;stroke-miterlimit:10;" d="M 69.632812 147.648438 L 59.097656 148.195312 "/>
<path style="fill:none;stroke-width:1.2;stroke-linecap:butt;stroke-linejoin:miter;stroke:rgb(0%,0%,100%);stroke-opacity:1;stroke-miterlimit:10;" d="M 59.097656 148.195312 L 48.5625 148.742188 "/>
<path style="fill:none;stroke-width:1.2;stroke-linecap:butt;stroke-linejoin:miter;stroke:rgb(0%,0%,0%);stroke-opacity:1;stroke-miterlimit:10;" d="M 75.101562 127.273438 L 69.632812 147.648438 "/>
<path style="fill:none;stroke-width:1.2;stroke-linecap:butt;stroke-linejoin:miter;stroke:rgb(0%,0%,0%);stroke-opacity:1;stroke-miterlimit:10;" d="M 69.761719 128.023438 L 65.386719 144.324219 "/>
<path style="fill:none;stroke-width:1.2;stroke-linecap:butt;stroke-linejoin:miter;stroke:rgb(0%,0%,100%);stroke-opacity:1;stroke-miterlimit:10;" d="M 48.5625 148.742188 L 41.011719 129.042969 "/>
<path style="fill:none;stroke-width:1.2;stroke-linecap:butt;stroke-linejoin:miter;stroke:rgb(0%,0%,100%);stroke-opacity:1;stroke-miterlimit:10;" d="M 48.5625 148.742188 L 42.816406 157.585938 "/>
<path style="fill:none;stroke-width:1.2;stroke-linecap:butt;stroke-linejoin:miter;stroke:rgb(0%,0%,0%);stroke-opacity:1;stroke-miterlimit:10;" d="M 42.816406 157.585938 L 37.066406 166.429688 "/>
<path style=" stroke:none;fill-rule:nonzero;fill:rgb(100%,100%,100%);fill-opacity:1;" d="M 45.5625 143.242188 L 52.5625 143.242188 L 52.5625 154.242188 L 45.5625 154.242188 Z M 45.5625 143.242188 "/>
<g style="fill:rgb(0%,0%,100%);fill-opacity:1;">
  <use xlink:href="#glyph0-2" x="45.5625" y="151.905273"/>
</g>
<path style="fill:none;stroke-width:1.2;stroke-linecap:butt;stroke-linejoin:miter;stroke:rgb(0%,0%,100%);stroke-opacity:1;stroke-miterlimit:10;" d="M 41.011719 129.042969 L 49.210938 122.410156 "/>
<path style="fill:none;stroke-width:1.2;stroke-linecap:butt;stroke-linejoin:miter;stroke:rgb(0%,0%,0%);stroke-opacity:1;stroke-miterlimit:10;" d="M 49.210938 122.410156 L 57.414062 115.773438 "/>
<path style="fill:none;stroke-width:1.2;stroke-linecap:butt;stroke-linejoin:miter;stroke:rgb(0%,0%,100%);stroke-opacity:1;stroke-miterlimit:10;" d="M 45.773438 131.574219 L 52.335938 126.269531 "/>
<path style="fill:none;stroke-width:1.2;stroke-linecap:butt;stroke-linejoin:miter;stroke:rgb(0%,0%,0%);stroke-opacity:1;stroke-miterlimit:10;" d="M 52.335938 126.269531 L 58.894531 120.960938 "/>
<path style=" stroke:none;fill-rule:nonzero;fill:rgb(100%,100%,100%);fill-opacity:1;" d="M 38.011719 123.542969 L 45.011719 123.542969 L 45.011719 134.542969 L 38.011719 134.542969 Z M 38.011719 123.542969 "/>
<g style="fill:rgb(0%,0%,100%);fill-opacity:1;">
  <use xlink:href="#glyph0-2" x="38.011719" y="132.206055"/>
</g>
<path style="fill:none;stroke-width:1.2;stroke-linecap:butt;stroke-linejoin:miter;stroke:rgb(0%,0%,0%);stroke-opacity:1;stroke-miterlimit:10;" d="M 57.414062 115.773438 L 75.101562 127.273438 "/>
<path style="fill:none;stroke-width:1.2;stroke-linecap:butt;stroke-linejoin:miter;stroke:rgb(0%,0%,0%);stroke-opacity:1;stroke-miterlimit:10;" d="M 57.414062 115.773438 L 56.320312 94.707031 "/>
<path style="fill:none;stroke-width:1.2;stroke-linecap:butt;stroke-linejoin:miter;stroke:rgb(0%,0%,0%);stroke-opacity:1;stroke-miterlimit:10;" d="M 56.320312 94.707031 L 77.386719 93.609375 "/>
<path style="fill:none;stroke-width:1.2;stroke-linecap:butt;stroke-linejoin:miter;stroke:rgb(0%,0%,0%);stroke-opacity:1;stroke-miterlimit:10;" d="M 56.320312 94.707031 L 35.25 95.800781 "/>
<path style="fill:none;stroke-width:1.2;stroke-linecap:butt;stroke-linejoin:miter;stroke:rgb(0%,0%,0%);stroke-opacity:1;stroke-miterlimit:10;" d="M 56.320312 94.707031 L 55.222656 73.636719 "/>
<path style="fill:none;stroke-width:1.2;stroke-linecap:butt;stroke-linejoin:miter;stroke:rgb(0%,0%,0%);stroke-opacity:1;stroke-miterlimit:10;" d="M 145.417969 154.175781 L 166.257812 150.886719 "/>
</g>
</svg>

<svg xmlns="http://www.w3.org/2000/svg" xmlns:xlink="http://www.w3.org/1999/xlink" width="300pt" height="300pt" viewBox="0 0 300 300"><defs><symbol overflow="visible"><path d="M.453 1.594v-7.938h4.5v7.938zm.5-.5h3.5v-6.938h-3.5zm0 0"/></symbol><symbol overflow="visible" id="a"><path d="M3.547-5.953c-.65 0-1.164.242-1.547.72-.375.48-.563 1.13-.563 1.952 0 .835.188 1.49.563 1.967.383.48.898.72 1.547.72.644 0 1.156-.24 1.53-.72.376-.476.564-1.132.564-1.968 0-.822-.187-1.474-.562-1.954-.375-.477-.887-.72-1.53-.72zm0-.734c.914 0 1.648.312 2.203.937.55.617.828 1.438.828 2.47 0 1.042-.277 1.87-.828 2.483-.555.617-1.29.922-2.203.922-.93 0-1.668-.305-2.22-.922C.774-1.41.5-2.237.5-3.28c0-1.033.273-1.853.828-2.47.55-.625 1.29-.938 2.22-.938zm0 0"/></symbol><symbol overflow="visible" id="b"><path d="M.89-6.563H2.08l2.906 5.485v-5.484h.86V0H4.656L1.75-5.484V0H.89zm0 0"/></symbol><symbol overflow="visible" id="c"><path d="M.89-6.563h.876v2.688H5v-2.688h.89V0H5v-3.125H1.766V0H.89zm0 0"/></symbol><symbol overflow="visible"><path d="M.406 1.422V-5.64h4V1.42zM.844.97h3.11v-6.157H.843zm0 0"/></symbol><symbol overflow="visible" id="d"><path d="M3.688-5.016v2.172h2.17v.672H3.69V0H3.03v-2.172H.845v-.672H3.03v-2.172zm0 0"/></symbol></defs><g><path fill="#fff" d="M0 0h300v300H0z"/><path d="M251.48 81.934l6.637 8.203" stroke-width="1.2" stroke="#f00" stroke-miterlimit="10" fill="none"/><path d="M258.117 90.137l6.633 8.2M230.64 85.227l10.423-1.645" stroke-width="1.2" stroke="#000" stroke-miterlimit="10" fill="none"/><path d="M241.063 83.582l10.417-1.648" stroke-width="1.2" stroke="#f00" stroke-miterlimit="10" fill="none"/><path d="M247.48 76.434h8v11h-8zm0 0" fill="#fff"/><use xlink:href="#a" x="247.48" y="85.097" fill="#f00"/><path d="M264.75 98.336l-7.57 19.69M257.18 118.027l-10.418 1.65" stroke-width="1.2" stroke="#000" stroke-miterlimit="10" fill="none"/><path d="M246.762 119.676l-10.418 1.644M236.344 121.32l-6.637-8.203" stroke-width="1.2" stroke="#00f" stroke-miterlimit="10" fill="none"/><path d="M229.707 113.117l-6.633-8.2" stroke-width="1.2" stroke="#000" stroke-miterlimit="10" fill="none"/><path d="M236.344 121.32l-3.785 9.844" stroke-width="1.2" stroke="#00f" stroke-miterlimit="10" fill="none"/><path d="M232.56 131.164l-3.787 9.848" stroke-width="1.2" stroke="#000" stroke-miterlimit="10" fill="none"/><path d="M226.344 113.82h21v15h-21zm0 0" fill="#fff"/><g fill="#00f"><use xlink:href="#b" x="226.344" y="125.922"/><use xlink:href="#c" x="233.321" y="125.922"/></g><use xlink:href="#d" x="240.336" y="121.039" fill="#00f"/><path d="M223.074 104.918l7.567-19.69M228.773 141.012l-20.84 3.293M207.934 144.305l-3.786 9.843" stroke-width="1.2" stroke="#000" stroke-miterlimit="10" fill="none"/><path d="M204.148 154.148l-3.785 9.848M200.363 163.996l-10.418 1.645" stroke-width="1.2" stroke="#f00" stroke-miterlimit="10" fill="none"/><path d="M189.945 165.64l-10.418 1.645" stroke-width="1.2" stroke="#000" stroke-miterlimit="10" fill="none"/><path d="M196.363 158.496h8v11h-8zm0 0" fill="#fff"/><use xlink:href="#a" x="196.363" y="167.159" fill="#f00"/><path d="M179.527 167.285l-7.57 19.695M166.258 150.887l13.27 16.398M163.723 155.648l10.617 13.122M171.957 186.98l-20.84 3.29M185.227 203.38l-13.27-16.4M180.04 204.863l-10.614-13.12M151.117 190.27l-7.566 19.69M154.996 194.02l-6.06 15.753M151.117 190.27l-13.27-16.403M143.55 209.96l13.266 16.403M156.816 226.363l20.84-3.29M158.13 221.133l16.667-2.633M177.656 223.074l7.57-19.695M137.848 173.867l-10.418 1.65" stroke-width="1.2" stroke="#000" stroke-miterlimit="10" fill="none"/><path d="M127.43 175.516l-10.418 1.644" stroke-width="1.2" stroke="#00f" stroke-miterlimit="10" fill="none"/><path d="M137.848 173.867l7.57-19.69M143.238 173.68l6.055-15.754" stroke-width="1.2" stroke="#000" stroke-miterlimit="10" fill="none"/><path d="M117.012 177.16l-6.637-8.203" stroke-width="1.2" stroke="#00f" stroke-miterlimit="10" fill="none"/><path d="M110.375 168.957l-6.633-8.2" stroke-width="1.2" stroke="#000" stroke-miterlimit="10" fill="none"/><path d="M110.012 171.66h14v11h-14zm0 0" fill="#fff"/><g fill="#00f"><use xlink:href="#b" x="110.012" y="180.323"/><use xlink:href="#c" x="116.989" y="180.323"/></g><path d="M106.06 161.648l3.784-9.847" stroke-width="1.2" stroke="#000" stroke-miterlimit="10" fill="none"/><path d="M109.844 151.8l3.78-9.843" stroke-width="1.2" stroke="#f00" stroke-miterlimit="10" fill="none"/><path d="M101.422 159.867l3.785-9.847" stroke-width="1.2" stroke="#000" stroke-miterlimit="10" fill="none"/><path d="M105.207 150.02l3.785-9.844" stroke-width="1.2" stroke="#f00" stroke-miterlimit="10" fill="none"/><path d="M103.742 160.758l-20.84 3.293" stroke-width="1.2" stroke="#000" stroke-miterlimit="10" fill="none"/><path d="M107.31 135.566h8v11h-8zm0 0" fill="#fff"/><use xlink:href="#a" x="107.309" y="144.229" fill="#f00"/><path d="M80.586 163.16l-3.785 9.844" stroke-width="1.2" stroke="#000" stroke-miterlimit="10" fill="none"/><path d="M76.8 173.004l-3.784 9.848" stroke-width="1.2" stroke="#f00" stroke-miterlimit="10" fill="none"/><path d="M85.22 164.94l-3.786 9.845" stroke-width="1.2" stroke="#000" stroke-miterlimit="10" fill="none"/><path d="M81.434 174.785l-3.786 9.848" stroke-width="1.2" stroke="#f00" stroke-miterlimit="10" fill="none"/><path d="M82.902 164.05l-13.27-16.402" stroke-width="1.2" stroke="#000" stroke-miterlimit="10" fill="none"/><path d="M67.332 178.242h8v11h-8zm0 0" fill="#fff"/><use xlink:href="#a" x="67.332" y="186.905" fill="#f00"/><path d="M69.633 147.648l-10.535.547" stroke-width="1.2" stroke="#000" stroke-miterlimit="10" fill="none"/><path d="M59.098 148.195l-10.535.547" stroke-width="1.2" stroke="#00f" stroke-miterlimit="10" fill="none"/><path d="M75.102 127.273l-5.47 20.375M69.762 128.023l-4.375 16.3" stroke-width="1.2" stroke="#000" stroke-miterlimit="10" fill="none"/><path d="M48.563 148.742l-7.55-19.7M48.563 148.742l-5.747 8.844" stroke-width="1.2" stroke="#00f" stroke-miterlimit="10" fill="none"/><path d="M42.816 157.586l-5.75 8.844" stroke-width="1.2" stroke="#000" stroke-miterlimit="10" fill="none"/><path d="M45.563 143.242h7v11h-7zm0 0" fill="#fff"/><use xlink:href="#b" x="45.563" y="151.905" fill="#00f"/><path d="M41.012 129.043l8.2-6.633" stroke-width="1.2" stroke="#00f" stroke-miterlimit="10" fill="none"/><path d="M49.21 122.41l8.204-6.637" stroke-width="1.2" stroke="#000" stroke-miterlimit="10" fill="none"/><path d="M45.773 131.574l6.563-5.304" stroke-width="1.2" stroke="#00f" stroke-miterlimit="10" fill="none"/><path d="M52.336 126.27l6.56-5.31" stroke-width="1.2" stroke="#000" stroke-miterlimit="10" fill="none"/><path d="M38.012 123.543h7v11h-7zm0 0" fill="#fff"/><use xlink:href="#b" x="38.012" y="132.206" fill="#00f"/><path d="M57.414 115.773l17.688 11.5M57.414 115.773L56.32 94.707M56.32 94.707l21.067-1.098M56.32 94.707L35.25 95.8M56.32 94.707l-1.097-21.07M145.418 154.176l20.84-3.29" stroke-width="1.2" stroke="#000" stroke-miterlimit="10" fill="none"/></g></svg>
